Suru++-Ubuntu/apps/symbolic/guitar-rig-symbolic.svg

<svg width="16" height="16" version="1.1" xmlns="http://www.w3.org/2000/svg">
 <path d="m7.222157 15.461034c-1.1113786-0.115516-2.4266447-0.58243-3.3189631-1.178077-0.7065984-0.471698-1.3977353-1.114791-1.8827011-1.751896-0.8285717-1.088427-1.347304-2.412067-1.4937264-3.8114998-0.05230459-0.4998684-0.02501601-1.4329181 0.05629752-1.924176 0.25812302-1.5595949 0.99684879-2.9996706 2.1095606-4.1124066 1.1245499-1.1245354 2.5339604-1.8452288 4.1349714-2.1143861 0.5470374-0.0917745 1.8734839-0.0914201 2.371431 8.5043e-4 2.1891051 0.40582641 3.9267381 1.5385826 5.0992371 3.3242114 0.230144 0.3504429 0.329147 0.5333535 0.302218 0.5581928-0.0082 0.00709-1.108587 0.3104024-2.445242 0.6731763-1.33665 0.3626323-3.5647074 0.9677044-4.9512359 1.344581-3.0271817 0.8228853-3.7145054 1.0063629-3.7288335 0.9954847-0.0290558-0.0212603 0.0868805-0.5485903 0.1958121-0.8892534 0.1298624-0.4061097 0.4351417-1.0421512 0.5237978-1.0913336 0.059235-0.031891 6.6248455-1.8222676 7.2087165-1.9646771 0.08529-0.02126 0.149461-0.055278 0.142587-0.076892-0.02303-0.071931-0.54758-0.414224-0.914306-0.5968157-0.443481-0.2207545-0.9920554-0.4133386-1.4818268-0.520066-0.3160294-0.0687421-0.4783812-0.080081-1.1479538-0.080081-0.8798863 0-1.193651 0.048191-1.8915465 0.2909137-0.8636652 0.3004809-1.5413457 0.726292-2.1891459 1.3757275-0.6734769 0.6751606-1.0952184 1.3562388-1.3950172 2.2529333-0.2334006 0.6980865-0.3037939 1.2016753-0.2807085 2.0082255 0.020587 0.7196658 0.088837 1.1137989 0.298617 1.7246817 0.6161306 1.79424 2.1271132 3.194701 3.9677843 3.677631 0.5941417 0.15591 0.9989552 0.196659 1.7197996 0.173272 0.902766-0.02835 1.5758021-0.198076 2.3637238-0.591571 0.864329-0.431835 1.68825-1.159898 2.217032-1.959079 0.271637-0.410574 0.592564-1.043391 0.550464-1.085486-0.02019-0.02126-0.969164 0.230321-3.7649993 0.994279-0.9476273 0.259024-2.1604049 0.58693-2.6950605 0.728949l-0.9721021 0.258315-0.1960177-0.112326c-0.2658298-0.152012-0.6120905-0.410079-0.8484659-0.63218-0.2140784-0.201265-0.559749-0.60128-0.5381332-0.622895 0.00747-0.0071 0.7387538-0.208352 1.6250994-0.446504 0.886346-0.238117 2.2970939-0.620699 3.1349961-0.8501696 0.8379013-0.2296127 2.1029152-0.572579 2.8111422-0.7625056 0.708228-0.1899266 1.768961-0.4769425 2.357188-0.6378131 0.588223-0.1608707 1.094229-0.2965832 1.124458-0.3011896 0.147937-0.024804 0.126747 0.9610072-0.03809 1.7686913-0.101731 0.4985566-0.361322 1.2629406-0.591278 1.7410886-0.724698 1.506904-1.964996 2.758293-3.450779 3.481715-1.286273 0.626262-2.7150739 0.884399-4.0988255 0.740501zm-3.4196181-5.682207c-0.1726525-0.4057554-0.2619535-0.7668994-0.349511-1.4135356-0.0084659-0.0623643 0.0143151-0.088585 0.1017454-0.1162237 0.1127547-0.0357882 2.0354783-0.5554644 4.8281158-1.3050012 0.8179521-0.2193368 2.1482609-0.5778232 2.9562349-0.7962388 2.123492-0.5739964 3.56506-0.9564716 3.625383-0.9618576 0.09383-0.00709 0.411375 0.962708 0.491346 1.502546l0.02445 0.1651227-1.408614 0.3733333c-0.774741 0.2055176-2.12682 0.5684687-3.00462 0.8069754-0.877801 0.2384712-2.0285593 0.5482358-2.5572359 0.6883066-0.5286766 0.1399647-1.7700115 0.4738598-2.758523 0.7417767-0.9885117 0.2678812-1.8148826 0.4871482-1.8363793 0.4871482-0.021509 0-0.072076-0.0776-0.1124004-0.17221z" style="fill:#808080"/>
</svg>

<svg xmlns="http://www.w3.org/2000/svg" width="16" height="16" version="1.1">
 <path d="M 7.222157,15.461034 C 6.1107784,15.345518 4.7955123,14.878604 3.9031939,14.282957 3.1965955,13.811259 2.5054586,13.168166 2.0204928,12.531061 1.1919211,11.442634 0.67318878,10.118994 0.52676639,8.7195612 0.4744618,8.2196928 0.50175038,7.2866431 0.58306391,6.7953852 0.84118693,5.2357903 1.5799127,3.7957146 2.6926245,2.6829786 3.8171744,1.5584432 5.2265849,0.83774975 6.8275959,0.56859251 c 0.5470374,-0.0917745 1.8734839,-0.0914201 2.371431,8.5043e-4 2.1891051,0.40582641 3.9267381,1.53858256 5.0992371,3.32421136 0.230144,0.3504429 0.329147,0.5333535 0.302218,0.5581928 -0.0082,0.00709 -1.108587,0.3104024 -2.445242,0.6731763 C 10.81859,5.4876557 8.5905326,6.0927278 7.2040041,6.4696044 4.1768224,7.2924897 3.4894987,7.4759673 3.4751706,7.4650891 3.4461148,7.4438288 3.5620511,6.9164988 3.6709827,6.5758357 3.8008451,6.169726 4.1061244,5.5336845 4.1947805,5.4845021 4.2540155,5.4526111 10.819626,3.6622345 11.403497,3.519825 11.488787,3.498565 11.552958,3.464547 11.546084,3.442933 11.523054,3.371002 10.998504,3.028709 10.631778,2.8461173 10.188297,2.6253628 9.6397226,2.4327787 9.1499512,2.3260513 8.8339218,2.2573092 8.67157,2.2459703 8.0019974,2.2459703 c -0.8798863,0 -1.193651,0.048191 -1.8915465,0.2909137 C 5.2467857,2.8373649 4.5691052,3.263176 3.921305,3.9126115 3.2478281,4.5877721 2.8260866,5.2688503 2.5262878,6.1655448 2.2928872,6.8636313 2.2224939,7.3672201 2.2455793,8.1737703 c 0.020587,0.7196658 0.088837,1.1137989 0.298617,1.7246817 0.6161306,1.79424 2.1271132,3.194701 3.9677843,3.677631 0.5941417,0.15591 0.9989552,0.196659 1.7197996,0.173272 0.902766,-0.02835 1.5758021,-0.198076 2.3637238,-0.591571 0.864329,-0.431835 1.68825,-1.159898 2.217032,-1.959079 0.271637,-0.410574 0.592564,-1.043391 0.550464,-1.085486 -0.02019,-0.02126 -0.969164,0.230321 -3.7649993,0.994279 -0.9476273,0.259024 -2.1604049,0.58693 -2.6950605,0.728949 L 5.9308381,12.094762 5.7348204,11.982436 C 5.4689906,11.830424 5.1227299,11.572357 4.8863545,11.350256 4.6722761,11.148991 4.3266055,10.748976 4.3482213,10.727361 4.3556913,10.720261 5.0869751,10.519009 5.9733207,10.280857 6.8596667,10.04274 8.2704146,9.660158 9.1083168,9.4306874 9.9462181,9.2010747 11.211232,8.8581084 11.919459,8.6681818 12.627687,8.4782552 13.68842,8.1912393 14.276647,8.0303687 14.86487,7.869498 15.370876,7.7337855 15.401105,7.7291791 c 0.147937,-0.024804 0.126747,0.9610072 -0.03809,1.7686913 -0.101731,0.4985566 -0.361322,1.2629406 -0.591278,1.7410886 -0.724698,1.506904 -1.964996,2.758293 -3.450779,3.481715 -1.286273,0.626262 -2.7150739,0.884399 -4.0988255,0.740501 z M 3.8025389,9.778827 C 3.6298864,9.3730716 3.5405854,9.0119276 3.4530279,8.3652914 3.444562,8.3029271 3.467343,8.2767064 3.5547733,8.2490677 3.667528,8.2132795 5.5902516,7.6936033 8.3828891,6.9440665 9.2008412,6.7247297 10.53115,6.3662433 11.339124,6.1478277 c 2.123492,-0.5739964 3.56506,-0.9564716 3.625383,-0.9618576 0.09383,-0.00709 0.411375,0.962708 0.491346,1.502546 l 0.02445,0.1651227 -1.408614,0.3733333 C 13.296948,7.4324897 11.944869,7.7954408 11.067069,8.0339475 10.189268,8.2724187 9.0385097,8.5821833 8.5098331,8.7222541 7.9811565,8.8622188 6.7398216,9.1961139 5.7513101,9.4640308 4.7627984,9.731912 3.9364275,9.951179 3.9149308,9.951179 c -0.021509,0 -0.072076,-0.0776 -0.1124004,-0.17221 z" style="fill:#808080"/>
</svg>
